newicons/custom_aim.svg

<?xml version="1.0" encoding="UTF-8"?><svg id="a" xmlns="http://www.w3.org/2000/svg" viewBox="0 0 48 48"><defs><style>.ab{fill:none;stroke:#fff;stroke-linecap:round;stroke-linejoin:round;}</style></defs><path id="e" class="ab" d="M10.56200029,7.21700001c3.81336403-3.05333567,8.55285835-4.71699095,13.43799973-4.71700001,4.88687515-.00004911,9.62796783,1.66472912,13.44200134,4.71999979"/><path id="f" class="ab" d="M45.2060013,27.54299927c-.60512543,3.62192917-2.12784195,7.02850723-4.42300034,9.89500046"/><path id="g" class="ab" d="M45.46799852,22.8199997c.0214653.39296722.03213501.78644753.0320015,1.18000031h0c.00013351.39355278-.01053619.78703308-.0320015,1.18000031"/><path id="h" class="ab" d="M40.77999879,10.55799961c2.29669952,2.86703777,3.82048416,6.27472973,4.42599869,9.89799976"/><path id="i" class="ab" d="M2.79399993,20.45700073c.60512424-3.62192917,2.12784219-7.02850628,4.4230001-9.89500046"/><path id="j" class="ab" d="M2.53200008,25.18000031c-.02146459-.39296722-.03213525-.78644753-.03200006-1.18000031-.00013518-.39355278.01053548-.78703308.03200006-1.18000031"/><path id="k" class="ab" d="M7.21700002,37.43799973c-2.29515791-2.86649323-3.81787586-6.2730732-4.42299986-9.89500046"/><path id="l" class="ab" d="M37.43799974,40.78300095c-3.81336212,3.0533371-8.55285835,4.71699142-13.43799973,4.71699905-4.88514137-.00000763-9.6246357-1.66366196-13.43799973-4.71699905"/><path id="m" class="ab" d="M36.66699983,14.68500042c1.4525528,1.97525883,2.42306137,4.2628336,2.83399963,6.67999935"/><path id="n" class="ab" d="M26.63999941,8.5c2.41533089.41138649,4.70110703,1.38151455,6.67499924,2.83300018"/><path id="o" class="ab" d="M11.3330002,33.31499863c-1.45134354-1.97360039-2.42146397-4.25901604-2.83300018-6.67399788"/><path id="p" class="ab" d="M21.36000063,39.5c-2.41533089-.4113884-4.70110703-1.3815155-6.67500019-2.83300018"/><path id="q" class="ab" d="M31.48699953,18.87000084c1.03515244,1.51054382,1.58908081,3.29886627,1.5890007,5.12999916h0c-.00022888,1.83000374-.5537796,3.61718559-1.58799934,5.1269989"/><path id="r" class="ab" d="M18.87100031,16.51300049c1.51025009-1.03479958,3.29817963-1.58871365,5.12899971-1.5890007,1.83194733-.00002384,3.62102127.55426788,5.13199997,1.59000015"/><path id="s" class="ab" d="M16.51199915,29.12700081c-1.03386688-1.50992966-1.58706379-3.29710197-1.58699894-5.12700081-.0000639-1.82989883.55313396-3.61707115,1.58700085-5.1269989"/><path id="t" class="ab" d="M29.12899973,31.48699951c-1.51036453,1.03444672-3.29828644,1.58800888-5.12899971,1.58800125-1.83071327.00000763-3.61863518-.55355453-5.12899971-1.58799934"/><path id="u" class="ab" d="M28.29199983,24h6.98500061"/><path id="v" class="ab" d="M12.72299959,24h6.98500061"/><path id="w" class="ab" d="M24.00000002,28.29199982v6.98500061"/><path id="x" class="ab" d="M24.00000002,12.72299957v6.98500061"/><path id="y" class="ab" d="M28.93400003,19.06599999l15.20400047-15.204"/><path id="z" class="ab" d="M29.65399934,24c0,3.12261772-2.53138161,5.65399933-5.65399933,5.65399933s-5.65399933-2.53138161-5.65399933-5.65399933,2.53138161-5.65399933,5.65399933-5.65399933,5.65399933,2.53138161,5.65399933,5.65399933Z"/><circle id="aa" class="ab" cx="24.00000002" cy="24" r=".75"/></svg>

<svg xmlns="http://www.w3.org/2000/svg" xml:space="preserve" id="svg1" version="1.1" viewBox="0 0 48 48"><defs id="defs1"><style id="style1">.a{fill:none;stroke:#fff;stroke-linecap:round;stroke-linejoin:round}</style></defs><path id="path45149" d="M10.562 7.217A21.5 21.5 0 0 1 24 2.5a21.5 21.5 0 0 1 13.442 4.72" style="fill:none;stroke:#fff;stroke-width:1;stroke-linecap:round;stroke-linejoin:round;stroke-opacity:1"/><path id="path45147" d="M45.206 27.543a21.5 21.5 0 0 1-4.423 9.895" style="fill:none;stroke:#fff;stroke-width:1;stroke-linecap:round;stroke-linejoin:round;stroke-opacity:1"/><path id="path45145" d="M45.468 22.82A21.5 21.5 0 0 1 45.5 24v0a21.5 21.5 0 0 1-.032 1.18" style="fill:none;stroke:#fff;stroke-width:1;stroke-linecap:round;stroke-linejoin:round;stroke-opacity:1"/><path id="path45143" d="M40.78 10.558a21.5 21.5 0 0 1 4.426 9.898" style="fill:none;stroke:#fff;stroke-width:1;stroke-linecap:round;stroke-linejoin:round;stroke-opacity:1"/><path id="path45141" d="M2.794 20.457a21.5 21.5 0 0 1 4.423-9.895" style="fill:none;stroke:#fff;stroke-width:1;stroke-linecap:round;stroke-linejoin:round;stroke-opacity:1"/><path id="path45139" d="M2.532 25.18A21.5 21.5 0 0 1 2.5 24a21.5 21.5 0 0 1 .032-1.18" style="fill:none;stroke:#fff;stroke-width:1;stroke-linecap:round;stroke-linejoin:round;stroke-opacity:1"/><path id="path45137" d="M7.217 37.438a21.5 21.5 0 0 1-4.423-9.895" style="fill:none;stroke:#fff;stroke-width:1;stroke-linecap:round;stroke-linejoin:round;stroke-opacity:1"/><path id="path45135" d="M37.438 40.783A21.5 21.5 0 0 1 24 45.5a21.5 21.5 0 0 1-13.438-4.717" style="fill:none;stroke:#fff;stroke-width:1;stroke-linecap:round;stroke-linejoin:round;stroke-opacity:1"/><path id="path45133" d="M36.667 14.685a15.724 15.724 0 0 1 2.834 6.68" style="fill:none;stroke:#fff;stroke-width:1;stroke-linecap:round;stroke-linejoin:round;stroke-opacity:1"/><path id="path45131" d="M26.64 8.5a15.724 15.724 0 0 1 6.675 2.833" style="fill:none;stroke:#fff;stroke-width:1;stroke-linecap:round;stroke-linejoin:round;stroke-opacity:1"/><path id="path45129" d="M11.333 33.315A15.724 15.724 0 0 1 8.5 26.641" style="fill:none;stroke:#fff;stroke-width:1;stroke-linecap:round;stroke-linejoin:round;stroke-opacity:1"/><path id="path45127" d="M21.36 39.5a15.724 15.724 0 0 1-6.675-2.833" style="fill:none;stroke:#fff;stroke-width:1;stroke-linecap:round;stroke-linejoin:round;stroke-opacity:1"/><path id="path45125" d="M31.487 18.87A9.076 9.075 0 0 1 33.076 24v0a9.076 9.075 0 0 1-1.588 5.127" style="fill:none;stroke:#fff;stroke-width:1;stroke-linecap:round;stroke-linejoin:round;stroke-opacity:1"/><path id="path45123" d="M18.871 16.513A9.076 9.075 0 0 1 24 14.924a9.076 9.075 0 0 1 5.132 1.59" style="fill:none;stroke:#fff;stroke-width:1;stroke-linecap:round;stroke-linejoin:round;stroke-opacity:1"/><path id="path45121" d="M16.512 29.127A9.076 9.075 0 0 1 14.925 24a9.076 9.075 0 0 1 1.587-5.127" style="fill:none;stroke:#fff;stroke-width:1;stroke-linecap:round;stroke-linejoin:round;stroke-opacity:1"/><path id="path45119" d="M29.129 31.487A9.076 9.075 0 0 1 24 33.075a9.076 9.075 0 0 1-5.129-1.588" style="fill:none;stroke:#fff;stroke-width:1;stroke-linecap:round;stroke-linejoin:round;stroke-opacity:1"/><path id="path45117" d="M28.292 24h6.985" style="fill:none;stroke:#fff;stroke-width:1;stroke-linecap:round;stroke-linejoin:round;stroke-opacity:1"/><path id="path45115" d="M12.723 24h6.985" style="fill:none;stroke:#fff;stroke-width:1;stroke-linecap:round;stroke-linejoin:round;stroke-opacity:1"/><path id="path45113" d="M24 28.292v6.985" style="fill:none;stroke:#fff;stroke-width:1;stroke-linecap:round;stroke-linejoin:round;stroke-opacity:1"/><path id="path45111" d="M24 12.723v6.985" style="fill:none;stroke:#fff;stroke-width:1;stroke-linecap:round;stroke-linejoin:round;stroke-opacity:1"/><path id="path45109" d="M28.934 19.066 44.138 3.862" style="fill:none;stroke:#fff;stroke-width:1;stroke-linecap:round;stroke-linejoin:round;stroke-opacity:1"/><path id="path44627" d="M29.654 24A5.654 5.654 0 0 1 24 29.654 5.654 5.654 0 0 1 18.346 24 5.654 5.654 0 0 1 24 18.346 5.654 5.654 0 0 1 29.654 24Z" style="fill:none;stroke:#fff;stroke-width:1;stroke-linecap:round;stroke-linejoin:round;stroke-opacity:1"/><circle id="path44943" cx="24" cy="24" r=".75" style="fill:#fff;fill-opacity:1;stroke:none;stroke-width:1;stroke-linecap:round;stroke-linejoin:round;stroke-opacity:1"/></svg>
